X: 16
T: Rambling Pitchfork, The
Z: tziguk
S: https://thesession.org/tunes/89#setting53299
R: jig
M: 6/8
L: 1/8
K: Dmaj
|:F2F AFF|dFF AFD|GFG ABc|ded cBA|
F2F AFF|dFF AFD|GFG BGB|1 AFD D2E:|2 AFD DFA||
|:d2e fed|ecA AFA|d2d efg|faf gfe|
d2e fed|ecA AGF|G2G BGB|1 AFD DFA:|2 AFD D2E||

